material/.icons/material/numeric-10-circle.svg

<svg xmlns="http://www.w3.org/2000/svg" viewBox="0 0 24 24"><path d="M14 9h2v6h-2V9m8 3c0 5.5-4.5 10-10 10S2 17.5 2 12 6.5 2 12 2s10 4.5 10 10M10 7H6v2h2v8h2V7m8 2a2 2 0 00-2-2h-2c-1.1 0-2 .9-2 2v6a2 2 0 002 2h2c1.11 0 2-.89 2-2V9z"/></svg>

<?xml version="1.0" encoding="UTF-8"?><!DOCTYPE svg PUBLIC "-//W3C//DTD SVG 1.1//EN" "http://www.w3.org/Graphics/SVG/1.1/DTD/svg11.dtd"><svg xmlns="http://www.w3.org/2000/svg" xmlns:xlink="http://www.w3.org/1999/xlink" version="1.1" id="mdi-numeric-10-circle" width="24" height="24" viewBox="0 0 24 24"><path d="M14 9H16V15H14V9M22 12C22 17.5 17.5 22 12 22S2 17.5 2 12 6.5 2 12 2 22 6.5 22 12M10 7H6V9H8V17H10V7M18 9C18 7.9 17.11 7 16 7H14C12.9 7 12 7.9 12 9V15C12 16.11 12.9 17 14 17H16C17.11 17 18 16.11 18 15V9Z" /></svg>
